X: 2
T: Augustan Club Waltz
C: Scott Joplin
%%abc-version 2.0
%%abcx-abcm2ps-target-version 5.9.1 (29 Sep 2008)
%%abc-creator hum2abc beta
%%abcx-conversion-date 2021/07/20 09:00:58
%%abc-copyright 2021 Craig Stuart Sapp
%%abc-edited-by Craig Stuart Sapp
%%abc-edited-by Craig Stuart Sapp
%%abcx-initial-encoding-date 2005/02/05
%%humdrum-veritas 2439707225
%%humdrum-veritas-data 543499102
%%removed 0's from note length
%%linebreak <none>
%%barnumbers 0
L: 1/4
M: 3/4
N: Derived from augustan.krn
Q: "Tempo di Valse." 1/4=152
%%staves {1 2}
V: 1 clef=treble
V: 2 clef=bass
K: Bb
[V:1] B//b//B//b//B//b//B//b//B//b//B//b// | 
[V:2] [D2B,2F,2][FB,_A,] | 
[V:1] B//b//B//b//B//b//B//b//B//b//B//b// | 
[V:2] [=E2B,2G,2][_EB,_G,] | 
[V:1] {/B}bzz | 
[V:2] [DB,F,]zz | 
[V:1] !arpeggio![b'f'd'b]zz ]|:  
[V:2] [B,,B,,,]zz ]|:  
[V:1] F3- | 
[V:2] B,,[DB,F,][DB,F,] | 
[V:1] FGF | 
[V:2] F,,[DB,F,][DB,F,] | 
[V:1] zf/=e/g/f/ & B3- | 
[V:2] B,,[DB,F,][DB,F,] | 
[V:1] d/B/G/B/F & Bzz | 
[V:2] F,,[DB,F,][DB,F,] | 
[V:1] d3- | 
[V:2] B,,[DB,F,][DB,F,] | 
[V:1] dcB | 
[V:2] F,,[DB,F,][DB,F,] | 
[V:1] zf/a/c'/a/ & E3- | 
[V:2] C,[EA,F,][EA,F,] | 
[V:1] f/e/c/A/F & Ezz | 
[V:2] F,,[EA,F,][EA,F,] | 
[V:1] E3- | 
[V:2] C,[CA,F,][CA,F,] | 
[V:1] EFE | 
[V:2] F,,[CA,F,][CA,F,] | 
[V:1] zf/a/c'/a/ & A3- | 
[V:2] C,[EA,F,][EA,F,] | 
[V:1] f/e/c/A/F & Azz | 
[V:2] F,,[EA,F,][EA,F,] | 
[V:1] c3- | 
[V:2] A,,[ECF,][ECF,] | 
[V:1] cBA | 
[V:2] F,,[ECF,][ECF,] | 
[V:1] zB/c/d/e/ & D3- | 
[V:2] B,,[DB,F,][DB,F,] | 
[V:1] f/d/b/f/d & Dzz | 
[V:2] F,,[DB,F,][DB,F,] | 
[V:1] F3- | 
[V:2] B,,[DB,F,][DB,F,] | 
[V:1] FGF | 
[V:2] F,,[DB,F,][DB,F,] | 
[V:1] zf/=e/g/f/ & B3- | 
[V:2] B,,[DB,F,][DB,F,] | 
[V:1] d/B/G/B/F & Bzz | 
[V:2] F,,[DB,F,][DB,F,] | 
[V:1] =B3- | 
[V:2] G,,[FDG,][FDG,] | 
[V:1] =Bdf | 
[V:2] =B,,[FDG,][FDG,] | 
[V:1] z^f/g/_a/g/ & e3- | 
[V:2] C,[ECG,][ECG,] | 
[V:1] c'/g/e'/c'/g & ezz | 
[V:2] E,[ECG,][ECG,] | 
[V:1] B3- | 
[V:2] z[^CB,G,][CB,G,] & =E,3 | 
[V:1] B=EG | 
[V:2] =E,[^CB,G,][CB,G,] | 
[V:1] zd/e/d/B/ & F3- | 
[V:2] F,[DB,][DB,] | 
[V:1] d/e/f/g/f & Fzz | 
[V:2] F,[DB,][DB,] | 
[V:1] G3- | 
[V:2] C,[=ECB,G,][ECB,G,] | 
[V:1] GAc |[1 
[V:2] F,,[_ECF,][EA,F,] | 
[V:1] zd/e/=e/f/ & B3- | 
[V:2] [B,B,,]F,D, | 
[V:1] bzz & B{/^c}d{/c}d :|][2 
[V:2] B,,zz :|]  
[V:1] z/ [d/B/][d/B/][f/d/][f/d/][b/d/] & B3- | 
[V:2] [B,B,,]F,D, | 
[V:1] [bd]x2 & Bzb ]|: 
[V:2] B,,zz ]|:  
[V:1] c'/b/a/b/a/b/ | 
[V:2] z[CG,][CG,] & E,3 | 
[V:1] a/g/f/e/d/c/ | 
[V:2] z[ECA,][ECA,] & F,3 | 
[V:1] d/F/G/A/B/c/ | 
[V:2] B,,[DB,F,][DB,F,] | 
[V:1] d/e/f/g/f | 
[V:2] F,,[DB,F,][DB,F,] | 
[V:1] [a/e/A/][aeA]<[aeA][b/e/B/] | 
[V:2] C,[ECF,][ECF,] | 
[V:1] [c'/e/c/][c'ec]<[c'ec][^c'/=e/^c/] | 
[V:2] F,,[EA,F,][EA,F,] | 
[V:1] [d'/f/d/][d'/f/d/][d'fd][f'd'f]- | 
[V:2] B,,[DB,F,][DB,F,] | 
[V:1] [f'2d'2f2]b | 
[V:2] D,[DB,F,][DB,F,] | 
[V:1] c'/b/a/b/a/b/ | 
[V:2] z[CG,][CG,] & E,3 | 
[V:1] a/g/f/e/d/c/ | 
[V:2] z[ECA,][ECA,] & F,3 | 
[V:1] d/F/G/A/B/c/ | 
[V:2] B,,[DB,F,][DB,F,] | 
[V:1] d/e/f/g/f | 
[V:2] F,,[DB,F,][DB,F,] | 
[V:1] f/=e/f/d/A/f/ | 
[V:2] A,,[FDA,][FDA,] | 
[V:1] =e/A/a/g/f/e/ | 
[V:2] A,,[G^CA,][GCA,] | 
[V:1] d{/^c'}d'{/c'}d' | 
[V:2] [FD][B,B,,][A,A,,] | 
[V:1] !accent![d'afd]zb | 
[V:2] !accent![D,D,,]zz | 
[V:1] c'/b/a/b/a/b/ | 
[V:2] z[CG,][CG,] & E,3 | 
[V:1] a/g/f/e/d/c/ | 
[V:2] z[ECA,][ECA,] & F,3 | 
[V:1] d/F/G/A/B/c/ | 
[V:2] B,,[DB,F,][DB,F,] | 
[V:1] d/e/f/g/f | 
[V:2] F,,[DB,F,][DB,F,] | 
[V:1] [a/e/A/][aeA]<[aeA][b/e/B/] | 
[V:2] C,[ECF,][ECF,] | 
[V:1] [c'/e/c/][c'ec]<[c'ec][^c'/=e/^c/] | 
[V:2] F,,[EA,F,][EA,F,] | 
[V:1] [d'/f/d/][d'/f/d/][d'fd][f'd'f]- | 
[V:2] B,,[DB,F,][DB,F,] | 
[V:1] [f'd'f]>d'b/f/ | 
[V:2] D,[DB,F,][DB,F,] | 
[V:1] ^f/g/a/g/c'/e'/ | 
[V:2] z[CG,][CG,] & E,3 | 
[V:1] [g'3g3] | 
[V:2] z[^CB,G,][CB,G,] & =E,3 | 
[V:1] g'/f'/d'/b/g/f/ | 
[V:2] F,[DB,][DB,] | 
[V:1] [d'2f2][d'f] | 
[V:2] F,[DB,][DB,] | 
[V:1] d'/=e/g/b/d'/g/ | 
[V:2] C,[=ECB,G,][ECB,G,] | 
[V:1] c'/_e/f/a/c'/f/ |[1 
[V:2] F,,[_EA,F,][EA,F,] | 
[V:1] [b3d3]- | 
[V:2] [B,B,,]F,D, | 
[V:1] [bd]{/=e}fb :|][2 
[V:2] B,,zz :|]  
[V:1] zd/e/=e/f/ & [b3d3]- | 
[V:2] [B,B,,]F,D, | 
[V:1] [bd]BG ]|: 
[V:2] B,,zz ]|:  
[V:1] D3- | 
[V:2] G,,[B,G,D,][B,G,D,] | 
[V:1] D>DG/B/ | 
[V:2] D,,[B,G,D,][B,G,D,] | 
[V:1] [d2B2G2D2][dBGD]- | 
[V:2] G,,[B,G,D,][B,G,D,] | 
[V:1] [dBGD]>GB/d/ | 
[V:2] B,,[B,G,D,][B,G,D,] | 
[V:1] [g3e3c3G3]- | 
[V:2] C,[CG,E,][CG,E,] | 
[V:1] [gecG]>[ge][f/d/][e/c/] | 
[V:2] C,[CG,E,][CG,E,] | 
[V:1] [d2B2]!arpeggio![dBG]- | 
[V:2] G,,[B,G,D,][B,G,D,] | 
[V:1] [dBG]>[dB][c/A/][B/G/] | 
[V:2] D,,[B,G,D,][B,G,D,] | 
[V:1] [A3^F3]- | 
[V:2] D,[DC^F,][DCF,] | 
[V:1] [AF]>[cA][B/G/][A/^F/] | 
[V:2] D,,[DC^F,][DCF,] | 
[V:1] G2G- | 
[V:2] G,,[DB,G,][DB,G,] | 
[V:1] G>^FG/A/ | 
[V:2] B,,[DB,G,][DB,G,] | 
[V:1] [B3G3]- | 
[V:2] [E,E,,][EB,G,][EB,G,] | 
[V:1] [BG]>[BG][c/A/G/][^c/A/G/] | 
[V:2] [E,E,,][EB,G,][E,E,,] | 
[V:1] x2b/a/ & [dA^F]z[g^c] | 
[V:2] [D,D,,]z[E,E,,] | 
[V:1] !accent![d'a^fd]zz | 
[V:2] [D,D,,]zz | 
[V:1] D3- | 
[V:2] G,,[B,G,D,][B,G,D,] | 
[V:1] D>DG/B/ | 
[V:2] D,,[B,G,D,][B,G,D,] | 
[V:1] [d2B2G2D2][dBGD]- | 
[V:2] G,,[B,G,D,][B,G,D,] | 
[V:1] [dBGD]>GB/d/ | 
[V:2] B,,[B,G,D,][B,G,D,] | 
[V:1] [g3e3c3G3]- | 
[V:2] C,[CG,E,][CG,E,] | 
[V:1] [gecG]>[ge][f/d/][e/c/] | 
[V:2] C,[CG,E,][CG,E,] | 
[V:1] [d2B2]!arpeggio![dBG]- | 
[V:2] G,,[B,G,D,][B,G,D,] | 
[V:1] [dBG]>GB/d/ | 
[V:2] G,,[B,G,D,][B,G,D,] | 
[V:1] [g3e3c3G3]- | 
[V:2] C,[CG,E,][CG,E,] | 
[V:1] [gecG]>[ge][f/d/][e/c/] | 
[V:2] C,[CG,E,][CG,E,] | 
[V:1] [d2B2]!arpeggio![dBG]- | 
[V:2] G,,[B,G,D,][B,G,D,] | 
[V:1] [dBG]>bg/d/ | 
[V:2] D,,[B,G,D,][B,G,D,] | 
[V:1] [e2c2^F2][dcF]- | 
[V:2] A,,[DC^F,][DCF,] | 
[V:1] [dcF]>cA/B/ |[1 
[V:2] D,,[DC^F,][DCF,] | 
[V:1] G3- | 
[V:2] [DB,G,][E,E,,][D,D,,] | 
[V:1] GBG :|][2 
[V:2] [G,,G,,,]zz :|]  
[V:1] G3 | 
[V:2] [D3B,3G,3] | 
[V:1] [B3_A3D3B,3] ]|: 
[V:2] !accent![F,3F,,3] ]|:  
[V:1] z[GE][GE] & [B3B,3] | 
[V:2] [E,3E,,3] | 
[V:1] [c3C3] & z[_GE][GE] | 
[V:2] [E,3E,,3] | 
[V:1] z[DB,][DB,] & [F3F,3]- | 
[V:2] [B,,3B,,,3] | 
[V:1] [F3F,3] & z[DB,][DB,] | 
[V:2] [D,3D,,3] | 
[V:1] [B3B,3] & z[GE][GE] | 
[V:2] [E,3E,,3] | 
[V:1] [B2B,2][cC] & z[_GE][GE] | 
[V:2] [E,3E,,3] | 
[V:1] [d3D3]- & z[BF][BF] | 
[V:2] [B,,3B,,,3] | 
[V:1] z[BF][BF] & [d3D3] | 
[V:2] [D,3D,,3] | 
[V:1] [B3B,3] & z[GE][GE] | 
[V:2] [E,3E,,3] | 
[V:1] [c3C3] & z[_GE][GE] | 
[V:2] [E,3E,,3] | 
[V:1] [F3F,3] & z[DB,][DB,] | 
[V:2] [D,3D,,3] | 
[V:1] [G3G,3] & z[_DB,][DB,] | 
[V:2] [_D,3_D,,3] | 
[V:1] [A2A,2][cC] & z[FC][AF] | 
[V:2] [C,3C,,3] | 
[V:1] [d2D2][=e=E] & z[=BF][_BG] | 
[V:2] [G,2G,,2][C,C,,] | 
[V:1] [f3F3]- & z[cA][cA] | 
[V:2] [F,F,,]C,A,, | 
[V:1] [fF]zz & [cA]zz | 
[V:2] F,,zz | 
[V:1] [B3B,3] & z[GE][GE] | 
[V:2] [E,3E,,3] | 
[V:1] [c3C3] & z[_GE][GE] | 
[V:2] [E,3E,,3] | 
[V:1] [F3F,3]- & z[DB,][DB,] | 
[V:2] [B,,3B,,,3] | 
[V:1] [F3F,3] & z[DB,][DB,] | 
[V:2] [D,3D,,3] | 
[V:1] [B3B,3] & z[GE][GE] | 
[V:2] [E,3E,,3] | 
[V:1] [B2B,2][cC] & z[_GE][GE] | 
[V:2] [E,3E,,3] | 
[V:1] [d3D3]- & z[BF][BF] | 
[V:2] [B,,3B,,,3] | 
[V:1] z[BF][BF] & [d3D3] | 
[V:2] [D,3D,,3] | 
[V:1] [g3e3G3] | 
[V:2] z[EB,G,][EB,G,] & [E,3E,,3] | 
[V:1] [b_dB][adA][gdG] | 
[V:2] z[^CB,G,E,][CB,G,E,] & [=E,3=E,,3] | 
[V:1] [f3=d3F3] | 
[V:2] z[DB,F,][DB,F,] & [F,3F,,3] | 
[V:1] [e2=B2F2][dBF] | 
[V:2] G,,[=B,G,][B,G,] | 
[V:1] [d3_B3G3=E3] | 
[V:2] C,[C_B,G,][CB,G,] | 
[V:1] [c3A3F3_E3] |[1 
[V:2] F,,[A,F,][A,F,] | 
[V:1] [B3F3D3]- | 
[V:2] [B,B,,]F,D, | 
[V:1] [BFD]DF :|][2 
[V:2] B,,zz :|]  
[V:1] [BFD][dD][eE] | 
[V:2] [B,B,,][D,D,,][E,E,,] | 
[V:1] [fF][gG][aA] || 
[V:2] [F,F,,][G,G,,][A,A,,] ||  
[V:1] [bB][_g'_g][f'f] | 
[V:2] [B,B,,][_G_G,][FF,] | 
[V:1] [_d'_d][bB][_g_G] | 
[V:2] [_D_D,][B,B,,][_G,_G,,] | 
[V:1] [fF]z[feA] | 
[V:2] [F,F,,]z[F,F,,] | 
[V:1] [bfdB]zz | 
[V:2] [B,B,,]zz | 
[V:1] [d'bfd]zz | 
[V:2] !arpeggio![FDB,]zz | 
[V:1] [bfdB]zz | 
[V:2] [B,B,,]zz | 
[V:1] !fermata![B3E3B,3] | 
[V:2] !fermata![_G,3B,,3] | 
[V:1] {/[B,DB]}!fermata![B3D3B,3] |]  
[V:2] {/[B,,F,]}!fermata![F,3B,,3] |]  


